X: 2
T: The Kinnegad Slashers
R: jig
M: 6/8
L: 1/8
K: Dmaj
A|ded dAF|ABA ABc|dAF DFA|Bee gfe|ded dAF|ABA a2g|fef dBA|Bdc d2:|A|dfa afd|cde ecA|dfa afd|a^ga b=ge|dfa afd|cde eag|fef dBA|Bdc d2:|


Tune 1258	Setting 1258

